X: 1306
T: Kürdîlihicazkâr Seyir
C: Şefik Gürmeriç
O: Turkey
F: http://compmusic.upf.edu/node/140
N: kurdilihicazkar--seyir--sofyan--1--sefik_gurmeric
N: makam= kurdilihicazkar
N: form= seyir
N: usul= sofyan = 4/4
M: 4/4
L: 1/16
K: C _B _e _A 
Q: 1/4=60
%%MIDI tuningsystem comma53
f4 g4 g4 g2a2  | g4 f2_3/4e2 d6c2  | \
w:   |   | 
z2b4b=a a3g gbag  | g6f2 _2/4e2f2 g4  | 
w:   |   | 
z4 f2g2 g4 c'4  | b2a2 g2f2 feed e4  | \
w:   |   | 
z2B4e2 d2f2 e2g2  | 
w:   | 
f2a2 g2f2 feed d4  | z4 d2e2 c4 g4  | \
w:   |   | 
f2a2 g2f2 e2d2 c2B2  | 
w:   | 
c2e2 d2c2 B2A2 G2F2  | c6B2 cedc c4  | \
w:   |   | 
z4 B2c2 d2e2 d2c2  | 
w:   | 
gfed c2d2 B2A2 G4  | G2ed c2cB B3A BAAG  | 
w:   |   | 
G16  | |


